X:120
T:Farewisl Kels
Z: id:dc-reel-265
M:C
L:1/8
K:A Dorian
gf|eAAG ABcd|eaaf gedB|eAAG ABcA|BAGF GABc|!
d2AG BGDG|G2Bd egfe|d2Bd efde|fdBA FAD]|!
B2GB dBGB|dBGB ABcA|dBGB ABdf|a2fe d2:|!
ag|f2fe fedf|agfg e3f|gfed cABG|A2cA eAfA|!
fedf egfg|eAA2 ceAe|d2fd efde|f2af ge:|!